     ooooooo          o  oooooo                                                                       oooooooo                              oo       ooooo       oooo         oo         ooo   ooo         o        
       ooooooooooooooooooooo                                                                            ooooooo                             ooo       ooooo      ooooo         oo         oo    ooo        oo       
         oo  oooooooooooo                                                                              oooooooo                              oo       ooooo       ooooo          o         oo    oo     ooooo       
          oo                                                                                          oooo ooo                                oo      ooooo         ooo          oo         ooo   ooo ooooooo       
           oo                                                                                         oo    ooo                                ooo     oooo          oo           oo         ooo  oooooooo ooo      
            oo                                                                                               ooo                               oooo    oooo           oo           oo        oooo  ooooo    oo      
             oo                                                                                               oo                                 ooo  oooooo          ooo          oo          ooo   ooo     oo     
             ooo                                                                                               oo                                 ooo  oooo            oo           o           oo    oo      oo    
              ooo                                                                                              oo                                 ooo  ooooo           oo          oo           ooo   ooooo   oo    
               ooo                                                                                             oo                                ooo   oooo             oo         ooo           oo     oooo  oo    
                ooo                                                                                           ooo                               oo     ooooo            oo          oo            oooo    ooo oo    
                 ooo                                                                                         oooo                             ooo      oooo             oo           oo             ooo   ooooooo   
                  oooo                                                                                       ooo                            oooo      ooooo             oo           ooo             ooooooooooo    
o                    ooo o                                                                                  ooo                           oooo        ooooo              oo           ooo             oooooooooo    
oo                    oooooo                                                                              ooo                          ooooo         oooooo              oo            oooo            oooo  oooo   
 ooo                    o ooo                                                                            ooo                         ooooo          oooooo                oo             oo             oo     oo   
  ooo                      ooooo                                                                        oooo                       ooooo           ooooooo                oo              oo            ooo     oo  
   ooooo o                   ooooo                                                                    oooo                       oooo             ooooooo                  oo             ooo            oo     ooo 
       ooooo                   ooooo                                                                 oooo                      ooooo             ooooooo                   oo              ooo           ooo     oo 
          ooooo                   oooooo                                                           oooo                      ooooo             ooooooooo                   oo               oo            ooo    ooo
             oooooooo              oooooooooo                                                     oooo                     oooo               oooooooo                     ooo              ooo            ooo    oo
               ooooooooooooooooooooooooooooooooooo                                              oooo                     ooooo                ooooooo                       oo               oo             oo     o
                    ooooo o oooooooooooooooooooooooo                                           oooo                    ooooo                oooooooo                        oo                oo             oo     
                                ooooooooooooooooooooooo                                      oooo                    ooooo                  oooooo                          oo                oo             ooo    
o                                                ooooooooo                                  oooo                   ooooo                  ooooooo                           oo                 oo             ooo   
ooo                                                  ooooooooo                            oooo                 o oooo                    oooooo         o                    o                 ooo             oo   
 ooooo                                                 oooooooooo                        oooo                 ooooo                   oooooooo                              oo                  oo             oooo 
   ooooo                                                      ooooo                    oooo    o            ooooo                    oooooooo                               oo                  ooo              oo 
      oooo                                                      ooooo                 ooo                  oooo                    ooooooooo                                oo                   ooo              oo
        oooo                 o o                                  oooo               ooo                ooooo                     ooooooooo                                 oo                    oo              oo
         ooooooooooooo   ooooooooooo                                oooo          o oo                 oooo                     ooooooooo                                   oo                    ooo              o
           ooooooooooooooooooo oooooooooooooooooo                     oo         oooo               ooooo                     ooooooooo                                     oo                      oo             o
              ooooooooooo         ooooooooooooooo                     oo       oooo               ooooo                     oooooooooo                                      oo                       oo             
                 ooooo                       ooooo                   ooo      oooo              ooooo                     oooooooooo                                       oo                        oo             
                                                oo                  ooo      ooo              ooooo                     ooooooooooo                                        oo                        ooo            
                                                ooo                oooo    oooo             oooo       ooo            ooooooooooo                                         oo                          oo            
                                                oo                ooo    oooo            ooooo           o         oooooooooooo                                          oo                           oo            
                                               ooo              oooo    oooo           ooooo                     ooooooooooo                                            ooo                           oo            
                                               oo              oooo   oooo            oooo                     oooooooooooo                                            ooo                             oo           
oo                       ooooo                oo              ooo   oooo            oooo                     ooooooooooo                                             ooo                               oo           
oooooooo                oooooooooooo         oo             ooo    ooo            oooo                    ooooooooooo                                              oooo                                oo           
oooooooooooooooo ooooooooooooooooooo         oo            ooo   oooo           oooo                   oooooooooooo                                              oooo                                  oo           
ooooooooooooooooooooooooooooooooooooo       oo           oooo  oooo           oooo                  oooooooooooo                                                 oooo                                  oo           
  ooooooooooooooooooooooooooooooooooo      oo            ooo   oooo           oooo                   oooooooooooo                                              oooo                                    oo           
      ooooooooooooooooooooooooooooooo      oo           ooo   ooo           oooo                   oooooooooooo                                             ooooo                                      oo           
    o ooooooooooooooooooo    oooooooo     oo          oooo   ooo           ooo                  oooooooooooo                                           oooooooo                                        o            
            oooooooooooo      oooooo     ooo         oooo  oooo          oooo                  oooooooooo                                         ooooooooooo                                         oo            
                              oooooo    ooo         oooo  ooo           ooo                ooooooooooo                                      ooooooooooo                                             ooo             
                             ooooooo    oo          ooo  ooo          oooo               ooooooooooo                                   ooooooooooo                                               ooooo              
                            ooooooo    ooo        oooo oooo           ooo             ooooooooooooo                                   ooooo                                                     oooo               o
                            oooooo    ooo        oooo ooo            ooo            oooooooooooo                                  ooooo                                                       oooo                oo
                           oooooo    ooo         ooooooo           oooo           oooooooooooo                             ooooooooooo                                                       oooo                ooo
o                         oooooo    oooo        ooooooo           ooo          oooooooooooo                         oooooooooooooo                                                          ooo                 ooo 
oo                        oooooo   ooooo       ooooooo            ooo         ooooooooooo                        ooooooooo                                                               ooooo                 ooo  
 ooo                     oooooo    oooo       oooooo            ooo        ooooooooooo                         oooooo                                                                  ooooo                 ooo    
  ooo                    ooooo     ooo       ooooooo            oo        oooooooooo                        oooooo                                                                  oooo                     oo     
   ooo                   oooo      oo       oooooo             ooo      oooooooooo                       oooooo                                                                   oooo                   ooooo  oooo
    ooo                 ooooo     ooo      ooooooo            ooo      ooooooooo                        ooooo                                                                  oooooo                ooooooo  oooooo
     ooo               ooooo      ooo     ooooooo            ooo     oooooooo                      ooooooooo                                                                ooooooooo             oooooo    ooooooo 
      oo               oooo       oo  o  ooo ooo             oo     ooooooo                      oooooooo                                                                  oooooo             oooooooo     ooooo    
      oo              ooooo      oo   o ooo ooo              oo    ooooooo                     oooooooo                                                       o   oooo  ooooooo            ooooooo       ooooo      
      oo             ooooo       oo   oooo  oo              oo   oooooooo                     ooooo                                                o    o oooooooooooooooooo            ooooooo        oooo         
      oo             ooooo      oo    ooo  ooo             oo   ooooooo                   oo oooo                                        oooooooooooooooooooooooooo   o            ooooooooo         oooooo         
      oo            ooooo      oo    ooo   oo              oo   oooooo                   ooooooo                                   ooooooooooooooooooooo                       ooooooooo         oooooooo           
     oo            oooooo     ooo   oooo  oo              oo  ooooooo                   ooooooo                             oooooooooooooo                                  oooooooo          ooooooooo             
      oo           ooooo      oo    ooo   oo              o   oooooo                 oooooooo                        oooooooooooooo                                    oooooooo            oooooooo              ooo
o    oo          ooooooo    ooo    ooo  oooo             oo  oooooo                 oooooo                        ooooooooooo                                         oooooo            oooooooo                oooo
     oo          oooooo    oooo    oo   ooo  o          ooo  ooooo                 ooooo                       ooooooo                                            ooooo             oooooooo                 ooooooo
o    oo         oooooo     ooo    oo    oo   o          oo  ooooo                oooo                       ooooooo                                            ooooooo            ooooooo                  ooooooooo
o    oo         oooooo    ooo    ooo   ooo  ooo        ooo  ooooo               oooo                      oooooo                                          ooooooooo             ooooo                    oooooooooo 
     o         oooooo    ooo     oo    oo    o         ooo ooooo            oooooo                     ooooooo                                          ooooooo              ooooo                       ooooooo    
o   oo        oooooo     oo      oo   ooo              ooooooooo           ooooo                    oooooooo                                         ooooo                 ooooo                      oooooooo      
o   oo        oooooo     oo     oo    oo              ooo ooooo            oooo                    oooooo                                          ooooo                ooooo                       oooooooo        
o   oo        ooooo     oo     ooo    oo              ooo ooooo          oooo                    oooo                                         oooooooo                ooooo                       oooooooo        oo
o   oo       oooooo     o      oo    oo               oo  oooo          oooo                    ooo                                oo oooooooooo o                  ooooo                        ooooooo       ooooo
    o        ooooo     oo      oo    ooo             ooo ooooo         oooo                    ooo                            o oooooooooooo                       oooo                       ooooooooo      ooooo  
   oo       ooooo      oo     oo    ooo              ooo ooooo        ooo                     ooo                          ooooooooo o                         oooooo                       ooooooooo     ooooo     
    o       ooooo     oo      oo    ooo              ooo ooooo       ooo                     ooo                         ooooooo                             ooooooo                     ooooooooooo    oooo        
   oo      ooooo      oo      o      oo              oo  oooo       ooo                     ooo                        ooooo                              ooooooo                   oooooooooooooo    ooo           
   oo      ooooo     oo       o     ooo              oo  oooo      ooo                     ooo                      ooooo                               ooooooo                   ooooooooooooo    oooo             
   o      oooooo     oo      o      oo               oo ooooo      ooo                     oo                  oooooooo                               oooooo                  oooooooooooooo     ooooo             o
   o      ooooo      oo      o     oo                oo ooooo     ooo                     oo                  ooooooo                              ooooooo                 ooooooooooooooo    oooooo             ooo
   o      ooooo     ooo     oo     oo                oo ooooo     oo                     oo                  oooooo                              oooooo                  oooooooooooooo   oooooo               ooooo
   oo    oooooo     oo      oo     oo               oo  oooo     oo                     oo                  ooooo                             ooooo                  oooooooooooooooooooooooo              oooooo   
   oo    ooooo     ooo      oo     o                oo  oooo    ooo                    oo                  ooo                              ooooo                  oooooooooooooooooooooo             ooooooooo     
   o     ooooo     ooo     oo      oo               oo  oooo    oo                    ooo                 ooo                             ooooo                  oooooooooooooooooooo                oooooo        o
   o    oooooo    ooo      oo     ooo               oo  oooo    oo                   ooo                 ooo                           oooooo                  oooooooooooooooooooo                 oo             o
   o    ooooo    oooo     oo      oo                oo  ooooo  ooo                   oo                 ooo                        oooooooo                  ooooooooooooooooooo                ooooo              o
  oo    ooooo   oooo      oo      oo                o    oooo  oo                   ooo                ooo                    ooooooooooo                  oooooooooooooooo                  ooooooo                
  oo    oooo   oooo       oo     ooo                o    oooo  oo                   oo                ooo                    oooooooo                   ooooooooooooo           ooo ooo o ooooooo                  o
  oo   ooooo   ooooo     oo      ooo                o    ooooo oo                  ooo                oo                    ooo                       oooooooooo               ooooooooooooooo                     o
  oo   ooooo   ooo       oo      oo                 o    oooo  oo                  oo                ooo                   ooo                      ooooooooooo               oooooooo o  o                        o
  oo   ooooo   oo        oo      oo                 o    oooooooo                  oo                oo                   ooo                     oooooooooooo              ooooo                                  o
  oo   oooo   ooo        o       oo                 o    ooooooo                  oo                oo                 ooooo                    ooooooooooooo              ooo                                     o
  o   ooooo   ooo       oo       oo                oo    ooooooo                  oo                oo                ooooo                  oooooooooo oooo              ooo                                      o
  o   ooooo   oo        oo       oo                 o     oooooo                 oo                ooo               ooooo                 oooooooooo   oo               ooo                                       o
  o   ooooo   oo        oo      ooo                oo     oooooo                 oo                oo               ooooo                 ooooooooo    oo               ooo                                       oo
  o   oooo    oo       oo       oo                 o      oooooo                 oo                oo              oooo                 oooooooo      oo              ooo                                        ooo
  o   ooooo  ooo       oo       ooo                o      oooooo                 oo               oo               ooo                 oooooooo      oo              ooo                                      oooooo
  o  ooooo   ooo      ooo       ooo                oo     oooooo                ooo               oo               oo                 ooooooo       ooo             ooo                                    oooooo oo
 oo  ooooo   oo       ooo       oo                 o      oooooo                ooo               oo              oo                 ooooooo       oo              ooo                                 oooooooo   oo
 oo  ooooo   oo       oo        oo                oo      ooooooo                o               oo              ooo                oooooo        ooo             ooo                            oooooooooo       oo
 oo  ooooo   oo       oo        oo                oo      ooooooo               oo               oo              oo                oooooo         oo             ooo                          ooooooooo           oo
 oo ooooo    o        oo        oo                oo       oooooo               oo               oo             oo                 ooooo         oo             ooo                        oooooo                 oo
 oo  oooo    o        oo        oo                oo       oooooo               oo               oo            ooo                ooooo         oo             ooo                        oooooo                  o 
 oo  oooo   oo        oo        o                 oo       oooooo               oo               oo            oo                oooooo        oo              oo                      ooooooo                    oo
 oo ooooo   oo       ooo        oo                o        ooooooo              o                oo           oo                 ooooo        oo              oo                   oooooooo                      oo 
 oo ooooo    o       ooo        oo                o        oooooooo             oo               oo           oo                ooooo         oo             oo                  oooooo                           o 
 oo oooo    oo       oo        oo                oo         ooooooo             oo              oo            oo                ooooo        oo             ooo                oooo                               o 
 oo ooooo   oo       oo        oo                oo         ooooooo            oo               oo           ooo                oooo        oo              oo                ooo                                 oo
 o ooooo    oo       oo        oo                 o         ooooooo            oo               oo           oo                ooooo        oo             oo                ooo                                 ooo
 oo oooo    o        oo        oo                ooo        ooooooo            oo               oo           oo                oooo        oo              oo               oo                                 ooooo
 oo oooo    oo       oo        oo                ooo        oooooooo           oo               oo           oo               ooooo        oo              o               oo                               ooooooo 
 ooooooo    oo      ooo        oo                 o         oooooooo           oo               oo           o                oooo        oo              o               oo                              ooooooooo 
 oooooo    ooo      oo         oo                 oo         ooooooo           oo               oo           o                oooo        oo             o               oo                            ooooo     oo 
 o oooo     o       oo         oo                 oo         ooooooo           oo               oo           o               oooo        oo              o               oo                           oooo       o  
 oooooo     oo      oo         oo                 o          oooooooo          oo               oo          oo               ooooo      oo              oo              oo                           ooo         o  
oo oooo     oo      oo        oo                  oo         ooooo oo          oo               oo          oo               oooo       oo              o              oo                           ooo          oo 
ooooooo     oo     ooo         oo                 o          ooooo oo          oo               oo          oo              oooo        oo             oo              oo                          ooo           o  
ooooooo     oo     ooo         oo                 oo         ooooo oo          o                oo          oo              oooo        oo             oo             oo                          ooo            o  
ooooooo    ooo     oo          oo                 oo          oooo  oo         oo               oo          oo              oooo       oo             oo              oo                         ooo             o  
oo oooo    oo      oo          oo                 oo          oooo  oo         oo               oo          oo              oooo       oo             oo             oo                         ooo              o  
oooooo     oo      oo          oo                 oo          oooo  ooo         o               oo          o               oooo       oo            oo              oo                        ooo               o  
ooooooo    oo      oo          oo                 oo          ooooo  oo         o               oo         oo               oooo       o             oo              o                        oo                 o  
oooooo     oo      oo          oo                 oo          ooooo  ooo        oo              ooo        oo               ooo       oo             oo             oo                       oo                  o  
oooooo     oo     ooo          oo                 oo          ooooo   oo        o                oo        oo              ooooo      oo            oo              oo                      oo                   o  
oooooo     oo      oo          oo                 oo           oooo   oo        oo               oo         o              oooo       oo            oo              oo                     oo                   oo  
oooooo     oo     oo           oo                 oo           ooooo  ooo       oo               oo         o               ooo       oo           oo               oo                     oo                   o   
oooooo     ooo     oo          oo                 oo           ooooo   oo       oo                o        oo              oooo       oo            o               oo                    oo                    oo  
oooooo     ooo    oo           ooo                oo            oooo   oo       oo                o         oo             oooo       o            oo               oo                    o                     o   
oooooo     oo     oo           oo                 oo            oooo   oo        oo               oo        oo             oooo      oo            oo               o                    oo                     o   
oooooo     oo     oo            oo                oo            oooo    oo       oo               oo         o             oooo      oo            oo               o                    o                      oo  
oooooo     oo     oo            oo                ooo           oooo    oo       oo               oo         oo            oooo      oo            o                o                    o                      oo o
oooooo     oo     oo            oo                ooo           oooo    oo       oo               oo         oo            oooo      oo           oo                o                   o                       oooo
oooooo     oo     oo            oo                 oo           oooo    oo       oo                oo        oo            oooo      oo            o               oo                   o                       oooo
oooooo    ooo     oo            oo                 oo           oooo    oo        o                oo        oo            ooo       oo            oo               o                  oo                       oooo
oooooo   ooo     oo             oo                 oo            oooo    oo       oo                o         oo           ooo       oo            o                o                  o                        oooo
ooooo    ooo     oo             oo                 ooo           oooo    oo       oo                oo        oo          oooo       oo            oo               o                 oo                        oooo
ooooo     oo     oo             oo                 ooo           oooo    oo       ooo               oo        oo           ooo       oo             o               o                 oo        o               oooo
ooooo     oo     oo              oo                 oo           oooo    oo        oo               oo        oo           oooo       o             o               oo                o         o               oooo
ooooo     oo     oo              o                  o            oooo     o        ooo               oo        o           oooo       oo           oo               oo                o                        ooooo
oooo      oo     oo              oo                 oo           oooo     oo        oo               oo        o           ooooo      oo            o                oo               o                        oooo 
oooo     ooo     oo               oo                oo           oooo     o         oo               oo        oo           oooo       oo           oo               oo              oo                        oooo 
 ooo     oo      oo               oo                oo           oooo     oo         oo              oo        oo           ooooo      oo           oo               oo               o         o              oooo 
 ooo     oo      o                oo                oo           oooo      oo        oo               oo       oo           ooooo      oo           oo                oo              o                        oooo 
oooo     oo     oo                oo                oo           oooo      oo         oo              oo        oo           ooooo     oo            oo               oo              o                       ooooo 
 ooo     oo     oo                oo                oo           ooooo     oo         oo              oo        oo            oooo      oo           oo                oo             o                       ooooo 
 oooo    oo     ooo               oo                oo           ooooo     oo         oo               oo       oo            ooooo     oo            oo               oo            oo                       oooo  
 ooo     oo      oo               oo                ooo           oooo     oo          o               oo        oo            ooooo    oo            oo                oo            o                        ooo  
oooo     oo     ooo                o                 o            oooo      oo         oo               o        ooo           ooooo     oo            oo                oo           oo         o             ooo  
oooo      oo    oo                oo                 oo           oooo      oo         oo               oo        oo            ooooo    oo             oo               oo o         oo         o            oooo  
oooo      oo    oo                 o                 oo           oooo      oo          oo              oo         oo            oooo     oo             oo               oo           oo                     oooo  
oooo      oo    oo                 oo                ooo          oooo      oo          oo               oo        oo            ooooo    oo             oo               oo           oo                     ooooo 
